svgs/sharp-regular/ban-smoking.svg

<svg xmlns="http://www.w3.org/2000/svg" viewBox="0 0 512 512"><!--! Font Awesome Pro 6.6.0 by @fontawesome - https://fontawesome.com License - https://fontawesome.com/license (Commercial License) Copyright 2024 Fonticons, Inc. --><path d="M92.9 126.9L385.1 419.1C349.7 447.2 304.8 464 256 464C141.1 464 48 370.9 48 256c0-48.8 16.8-93.7 44.9-129.1zm165 97.1L126.9 92.9C162.3 64.8 207.2 48 256 48c114.9 0 208 93.1 208 208c0 48.8-16.8 93.7-44.9 129.1L353.9 320l46.1 0 16 0 0-16 0-64 0-16-16 0-142.1 0zm32 32l94.1 0 0 32-62.1 0-32-32zM256 512A256 256 0 1 0 256 0a256 256 0 1 0 0 512zM288 96l-32 0 0 16c0 26.5 21.5 48 48 48l32 0c8.8 0 16 7.2 16 16l0 16 32 0 0-16c0-26.5-21.5-48-48-48l-32 0c-8.8 0-16-7.2-16-16l0-16zM112 224l-16 0 0 16 0 64 0 16 16 0 128.8 0-96-96L112 224z"/></svg>

<svg xmlns="http://www.w3.org/2000/svg" viewBox="0 0 512 512"><!--! Font Awesome Pro 6.4.2 by @fontawesome - https://fontawesome.com License - https://fontawesome.com/license (Commercial License) Copyright 2023 Fonticons, Inc. --><path d="M92.9 126.9L385.1 419.1C349.7 447.2 304.8 464 256 464C141.1 464 48 370.9 48 256c0-48.8 16.8-93.7 44.9-129.1zm165 97.1L126.9 92.9C162.3 64.8 207.2 48 256 48c114.9 0 208 93.1 208 208c0 48.8-16.8 93.7-44.9 129.1L353.9 320H400h16V304 240 224H400 257.9zm32 32H384v32H321.9l-32-32zM256 512A256 256 0 1 0 256 0a256 256 0 1 0 0 512zM288 96H256v16c0 26.5 21.5 48 48 48h32c8.8 0 16 7.2 16 16v16h32V176c0-26.5-21.5-48-48-48H304c-8.8 0-16-7.2-16-16V96zM112 224H96v16 64 16h16H240.8l-96-96H112z"/></svg>
